X: 1006
T: Middle Temple Jigg.
%R: jig
B: Henry Playford "Apollo's Banquet", London 1687 (5th Edition)
F: https://archive.org/details/apollosbanquetco01rugg
Z: 2017 John Chambers <jc:trillian.mit.edu>
M: 6/4
L: 1/4
K: D
% - - - - - - - - - -
A |\
(FD)d c2B | ABG F2E | e3 E>FG |\
(FD)d c2B | g>af e>dc | d3- d2 :|
|: a |\
(ae)f g>af | e>fd c2B | g3 B>cd |\
(cA)a g>af | e>fd c>Bc | d3- d2 |]
% - - - - - - - - - -

%%sep 1 1 500
%%sep 1 1 500

